build/images/svgs/medium_logo.svg

<svg width="291" height="252" viewBox="0 0 291 252" xmlns="http://www.w3.org/2000/svg"><title>medium_logo</title><g fill="none" fill-rule="evenodd"><path d="M196.476 1.219c-1.476-.738-2.683.008-2.683 1.658v202.916l88.852 44.426c4.427 2.214 8.049-.025 8.049-4.975V49.916a2.57 2.57 0 0 0-1.42-2.298L196.476 1.219" fill="#CCCDC9"/><path d="M96.902 157.407l95.329-154.91c.865-1.405 2.78-1.951 4.256-1.213l92.084 46.042a2.185 2.185 0 0 1 .884 3.099l-95.652 155.433-96.901-48.451" fill="#9EA1A0"/><path d="M10.733 5.308C4.83 2.357 2.83 4.541 6.289 10.162l90.613 147.245 96.901 48.451L97.528 49.411a4.194 4.194 0 0 0-1.695-1.553l-85.1-42.55" fill="#797B79"/><path d="M96.902 245.309c0 4.95-3.623 7.189-8.05 4.975L5.367 208.541C2.415 207.065 0 203.158 0 199.858V5.942c0-3.3 2.415-4.793 5.367-3.317l90.34 45.171a2.161 2.161 0 0 1 1.195 1.933v195.58" fill="#515251"/></g></svg>

<?xml version="1.0" encoding="UTF-8"?>
<svg width="291px" height="252px" viewBox="0 0 291 252" version="1.1" xmlns="http://www.w3.org/2000/svg" xmlns:xlink="http://www.w3.org/1999/xlink">
    <!-- Generator: Sketch 39.1 (31720) - http://www.bohemiancoding.com/sketch -->
    <title>medium_logo</title>
    <desc>Created with Sketch.</desc>
    <defs></defs>
    <g id="Page-1" stroke="none" stroke-width="1" fill="none" fill-rule="evenodd">
        <g id="medium-m">
            <g id="Group-8">
                <g id="medium_logo">
                    <path d="M196.476,1.219 C195,0.481 193.793,1.227 193.793,2.877 L193.793,205.793 L282.645,250.219 C287.072,252.433 290.694,250.194 290.694,245.244 L290.694,49.916 C290.694,48.943 290.144,48.053 289.274,47.618 L196.476,1.219" id="Fill-6" fill="#CCCDC9"></path>
                    <path d="M96.902,157.407 L192.231,2.497 C193.096,1.092 195.011,0.546 196.487,1.284 L288.571,47.326 C289.718,47.899 290.127,49.333 289.455,50.425 L193.803,205.858 L96.902,157.407" id="Fill-7" fill="#9EA1A0"></path>
                    <path d="M10.733,5.308 C4.83,2.357 2.83,4.541 6.289,10.162 L96.902,157.407 L193.803,205.858 L97.528,49.411 C97.119,48.745 96.531,48.208 95.833,47.858 L10.733,5.308" id="Fill-9" fill="#797B79"></path>
                    <path d="M96.902,245.309 C96.902,250.259 93.279,252.498 88.852,250.284 L5.367,208.541 C2.415,207.065 0,203.158 0,199.858 L0,5.942 C0,2.642 2.415,1.149 5.367,2.625 L95.707,47.796 C96.439,48.162 96.902,48.91 96.902,49.729 L96.902,245.309" id="Fill-10" fill="#515251"></path>
                </g>
            </g>
        </g>
    </g>
</svg>
